X:153
T:Le Tourment
R:jig
C:Jean-Paul Loyer
N:Tune was written in key of C
D:Ojnab: Le Messager
Z:transcribed by Dave Marshall
M:6/8
K:G
|: E3 EFG | DGF GAB | d3 dcB | cBA BAG |
E3 EFG | DGF GAB | dcB cBA | DGF G3 :|
|: G3 AGA | Bdc BAG | E2c cBc | d2d def | 
g3 d3 | e3 B3 | c2A BAG |1 AGF DEF :|2 AGF G3 |
